X: 159
T: REEL: Trip to Birmingham
C: C: Josie McDermott; S: Various
C: Set Leaders: Mars, Tania, Anton
Z: Mars Agliullin ed., Anton Zille ed.; slainte at The Session
N: https://thesession.org/members/26966/sets/94276
R: Reel
M: 4/4
L: 1/8
Q: 1/2=100
K: Gmaj
E|:DGGF G2Bd|e2ed edBA|~G2BG dGBG|ABAG EGDE|
DGGF G2Bd|~e3d efga|bg~g2 ageg|1 dBAB ~G3E:|2 dBAB ~G3z ||
|:dggf g2ga|~b2ag edBA|G2BG dGBG|ABAG EGD2|
|1 dggf ~g3a|~b2ag edBA|~G3B d2BG|AGFA ~G3z:||
|2 dg~g2 ag~g2|~b2ag edBA|~G3B d2BG|AGFA ~G3||

